X:1
T:I Shall Dwell Forever There
T:I Shall Dwell Forever There
T:Bentley DeForest Ackley
T:Alfred Henry Ackley, 1911
T:Public Domain Courtesy of the Cyber Hymnal™
T:Public Domain Courtesy of the Cyber Hymnal™
C:Bentley DeForest Ackley
Z:Public Domain
Z:Courtesy of the Cyber Hymnal™
%%score ( 1 2 ) ( 3 4 )
L:1/8
Q:1/4=100
M:4/4
K:Ab
V:1 treble 
V:2 treble 
V:3 bass 
V:4 bass 
V:1
 [Ec][Fd] | [Ec]2 [DB]2 [CA]2 [CE][DF] | [CE]2 [B,D]2 [A,C]2 [B,D][CE] | %3
w: 1.~When the|night is o’er and the|sha- dows past, And e-|
w: 2.~Tho’ my|sky be filled with the|clouds of time, And my|
w: 3.~How my|heart will sing when I|see the King, For there|
 [DF][EG][EB][Ec] [Ec][EA][Ad][Ac] | [Ac]2 [AB]2 !fermata![GB]2 [Ec][Fd] | %5
w: ter- nal dawn dis- pels the gloom of|earth- ly care; In the|
w: soul is bur- dened with fore- bod- ings|of des- pair, Yet, my|
w: is no sover- eign that with Je- sus|can com- pare; So the|
 [Ec]2 [DB]2 [CA]2 [DB][Ec] | [Fd]2 [Fd]2 [DF]2 [DG][EA] | [EB]2 [=DB]2 [EB][Ge][Ec][FA] | %8
w: home of God I shall|rest at last, In the|land of E- den I shall|
w: heart is cheered, for the|hope is mine, If I|trust in Je- sus I shall|
w: sac- ri- fice of a|life I’ll bring, And with|Him in glo- ry, I shall|
 [EG][FA][EG][=DF] E2 ||"^Refrain" [Ge][Gd] | [Ac]2 E2 [Ec]2 [=D=B][Ec] | [Fe] [Fd]2 [FB] [DF]4 | %12
w: dwell for- ev- er there.||||
w: dwell for- ev- er there.|I shall|walk the streets of the|ci- ty of God|
w: dwell for- ev- er there.||||
 [DG][DA][C=A][DB] [Ge]2 [Gd]2 | [Ac]2 [^Fc]2 !fermata![Gd]2 [Ge][Gd] | [Ac]2 E2 [Ec]4 | %15
w: |||
w: With its tree of life so|bright, so fair, There will|be no night—|
w: |||
 [Fc][FB][Fd][FB] [DF]4 | [Ge][G=d][G_d][EG] [Ac]2 [EB]2 | [EA]4 |] %18
w: |||
w: Je- sus is the light,|I shall dwell for- ev- er|there.|
w: |||
V:2
 x2 | x8 | x8 | x8 | x8 | x8 | x8 | x8 | x4 E2 || x2 | x2 E2 x4 | x8 | x8 | x8 | x2 E2 x4 | x8 | %16
 x8 | x4 |] %18
V:3
 [A,,A,][A,,A,] | [A,,A,]2 [E,G,]2 [A,,A,]2 [A,,A,][A,,A,] | %2
 [E,A,]2 [E,G,]2 [A,,E,]2 [A,,E,][A,,A,] | [D,A,][D,B,][C,A,][E,G,] A,[A,C][A,F][A,E] | %4
 [F,=D]2 [B,,D]2 [F,E]2 A,A, | [E,A,]2 [E,G,]2 [F,A,]2 [E,G,]A, | %6
 [D,A,]2 [D,A,]2 [D,A,]2 [D,B,][C,A,] | [B,,G,]2 (F,A,) [E,G,][E,B,][A,,E][A,,C] | %8
 [B,,B,][B,,B,][B,,B,][B,,A,] [E,G,]2 || [E,B,][E,E] | [A,E]2 [A,C]2 [A,,A,]2 [A,,A,][A,,A,] | %11
 [D,A,] [D,A,]2 [D,A,] [D,B,]4 | [E,B,][E,F,][E,^F,][E,G,] [E,B,]2 [E,E]2 | %13
 [A,E]2 [=A,E]2 [B,E]2 [E,B,][E,E] | [A,E]2 [A,C]2 [A,,A,]4 | [D,A,][D,A,][D,A,][D,A,] [D,B,]4 | %16
 [E,B,][E,B,][E,B,][E,B,] [E,E]2 [E,D]2 | [A,,A,C]4 |] %18
V:4
 x2 | x8 | x8 | x4 A, x3 | x6 A,A, | x7 A, | x8 | x2 B,,2 x4 | x6 || x2 | x8 | x8 | x8 | x8 | x8 | %15
 x8 | x8 | x4 |] %18

